public/icons/flags/en.svg

<svg viewBox="0 0 20 14" fill="none" xmlns="http://www.w3.org/2000/svg">
<g>
<path d="M-3.62842 -0.0761108V14.0782H23.3321V-0.0761108H-3.62842Z" fill="#012169"/>
<path d="M-3.62842 -0.0761108L23.3321 14.0782L-3.62842 -0.0761108ZM23.3321 -0.0761108L-3.62842 14.0769L23.3321 -0.0761108Z" fill="black"/>
<path d="M22.7298 15.3441L9.852 8.58261L-3.02577 15.3441L-4.23071 12.8098L6.83719 6.99984L-4.23071 1.18984L-3.02577 -1.34442L9.852 5.41706L22.7298 -1.34442L23.9347 1.18984L12.8668 6.99984L23.9347 12.8098L22.7298 15.3441Z" fill="white"/>
<path d="M-3.62842 -0.0761108L23.3321 14.0782L-3.62842 -0.0761108ZM23.3321 -0.0761108L-3.62842 14.0769L23.3321 -0.0761108Z" fill="black"/>
<path d="M22.9297 14.9213L9.85196 8.05356L-3.22582 14.9213L-4.03076 13.2323L7.84331 6.99967L-4.03076 0.767077L-3.22582 -0.921997L9.85196 5.94578L22.9297 -0.921997L23.7347 0.767077L11.8606 6.99967L23.7347 13.2323L22.9297 14.9213Z" fill="#C8102E"/>
<path d="M9.85182 -0.0761108V14.0782V-0.0761108ZM-3.62842 7.00037H23.3321H-3.62842Z" fill="black"/>
<path d="M12.0987 14.0769H7.60491V9.35963H-3.62842V4.64111H7.60491V-0.0761108H12.0987V4.64111H23.3321V9.35963H12.0987V14.0769Z" fill="white"/>
<path d="M9.85182 -0.0761108V14.0782V-0.0761108ZM-3.62842 7.00037H23.3321H-3.62842Z" fill="black"/>
<path d="M11.2 14.0769H8.50367V8.41593H-3.62842V5.58482H8.50367V-0.0761108H11.2V5.58482H23.3321V8.41593H11.2V14.0769Z" fill="#C8102E"/>
</g>
</svg>

<svg viewBox="0 0 20 14" fill="none" xmlns="http://www.w3.org/2000/svg"><path d="M-3.628-.076v14.154h26.96V-.076h-26.96Z" fill="#012169"/><path d="m-3.628-.076 26.96 14.154L-3.628-.076Zm26.96 0-26.96 14.153L23.332-.076Z" fill="#000"/><path d="M22.73 15.344 9.852 8.583l-12.878 6.761-1.205-2.534L6.837 7-4.23 1.19l1.205-2.534L9.852 5.417 22.73-1.344l1.205 2.534L12.867 7l11.068 5.81-1.205 2.534Z" fill="#fff"/><path d="m-3.628-.076 26.96 14.154L-3.628-.076Zm26.96 0-26.96 14.153L23.332-.076Z" fill="#000"/><path d="M22.93 14.921 9.852 8.054-3.226 14.92l-.805-1.689L7.843 7-4.03.767l.805-1.689L9.852 5.946 22.93-.922l.805 1.69L11.86 7l11.874 6.232-.805 1.69Z" fill="#C8102E"/><path d="M9.852-.076v14.154V-.076ZM-3.628 7h26.96-26.96Z" fill="#000"/><path d="M12.099 14.077H7.605V9.36H-3.628V4.64H7.605V-.076h4.494V4.64h11.233V9.36H12.1v4.717Z" fill="#fff"/><path d="M9.852-.076v14.154V-.076ZM-3.628 7h26.96-26.96Z" fill="#000"/><path d="M11.2 14.077H8.504V8.416H-3.628V5.585H8.504V-.076H11.2v5.66h12.132v2.832H11.2v5.66Z" fill="#C8102E"/></svg>
